X:1
T:Mr. Hamilton of Wishaw’s Reel
T:Mr. Hamilton of Wishaw’s Reel
T:William Gow
C:William Gow
L:1/8
M:2/2
K:Bb
V:1 treble 
V:1
 f | dB B/B/B TB2 FB | cded cCCg | dB B/B/B TB2 FB | ABcA BB,B, :| d | B/B/B fd bdfd | %7
 B/B/B fd eccd | B/B/B fd bdfd | ABcA BB,B,d | B/B/B fd bdfd | B/B/B fd eccf | gefd ecdc | %13
 BGTFE DB,B, || %14

